X: 1
T: PARNELL AND IRELAND -- JIG
C: Tom Doyle
B: Ryan's Mammoth Collection of Fiddle Tunes
R: jig
M: 6/8
L: 1/8
Z: Contributed 20000422013301 by John Chambers jc:ecf-guest.mit.edu
K: D
uA \
| vfed fga | fed fg"1"a | "2"b"3"c'"4"d' "1"a"3"f"1"d | "3"f"2"ee ue2uA |
| vfed fga | fed fg"1"a | "2"b"3"c'"4"d' "1"a"3"f"1"d | "2"e"1"dd d2 :|
|: "0"A \
| vafa geg | fdf ecA | afa baf | fee ue2"0"uA |
| vafa geg | fdf ecA | dcd eag | fdd d2 :|
